src/assets/icons/ico_build.svg

<?xml version="1.0" encoding="utf-8"?>
<!-- Generator: Adobe Illustrator 26.0.1, SVG Export Plug-In . SVG Version: 6.00 Build 0)  -->
<svg version="1.1" id="Layer_1" xmlns="http://www.w3.org/2000/svg" xmlns:xlink="http://www.w3.org/1999/xlink" x="0px" y="0px"
	 viewBox="0 0 64 64" style="enable-background:new 0 0 64 64;" xml:space="preserve">
<style type="text/css">
	.st0{fill:#43BBC4;}
</style>
<path class="st0" d="M29.6173,47.0402c-0.8561,0.6906-1.3424,1.7272-1.3097,2.8422l0.0381,1.3291
	c0.0039,0.1353,0.0625,0.2637,0.1621,0.355c0.0928,0.0845,0.2129,0.1309,0.3379,0.1309c0.0098,0,0.0205-0.0005,0.0303-0.001
	l1.2725-0.0771c1.0215-0.062,1.9639-0.5674,2.6152-1.4214c1.8828,0.4409,10.9173,2.323,18.6703,0.0048
	c0.618,0.8203,1.5551,1.3534,2.5895,1.4166l1.2725,0.0771c0.0098,0.0005,0.0205,0.001,0.0303,0.001
	c0.124,0,0.2451-0.0464,0.3369-0.1309c0.1006-0.0913,0.1592-0.2192,0.1631-0.3545l0.0391-1.3291
	c0.0319-1.1157-0.4553-2.1524-1.3107-2.8426c2.7534-12.9576,0.5204-22.9097,0.0206-24.8483c0.8457-0.6899,1.3223-1.7236,1.29-2.832
	l-0.0391-1.3291c-0.0039-0.1353-0.0625-0.2632-0.1631-0.3545c-0.0996-0.0908-0.2334-0.1367-0.3672-0.1299l-1.2725,0.0771
	c-1.0425,0.0632-1.9864,0.6033-2.606,1.4371c-9.723-2.0735-16.9767-0.4689-18.6557-0.027
	c-0.6182-0.8262-1.5752-1.3477-2.6133-1.4102l-1.2725-0.0771c-0.1357-0.0034-0.2676,0.0386-0.3682,0.1299
	c-0.0996,0.0913-0.1582,0.2197-0.1621,0.355l-0.0381,1.3286c-0.0332,1.1079,0.4434,2.1421,1.2891,2.832
	C29.0969,24.1306,26.8639,34.0826,29.6173,47.0402z M30.4434,21.5747c-0.7373-0.4858-1.1621-1.3027-1.1357-2.186l0.0234-0.813
	l0.7568,0.0459c0.8135,0.0493,1.5586,0.4912,2.0381,1.2568c0.1211,0.1909,0.3555,0.2759,0.5684,0.2119
	c0.0801-0.0239,8.0156-2.3711,18.8223,0.0098c0.2269,0.0488,0.4404-0.066,0.5423-0.2597c0.0101-0.0132,0.025-0.022,0.0339-0.0362
	c0.4326-0.6909,1.1777-1.1333,1.9912-1.1826l0.7578-0.0459l0.0234,0.8135c0.0254,0.8828-0.3994,1.6997-1.1367,2.1855
	c-0.1836,0.1211-0.2666,0.3491-0.2041,0.5605c0.0322,0.1055,3.1074,10.7153-0.0088,25.0083
	c-0.0005,0.0026,0.0004,0.005-0.0001,0.0076c-0.009,0.0444-0.0051,0.0886-0.002,0.1331c0.0015,0.0204-0.0034,0.0414,0.0005,0.0612
	c0.0079,0.0407,0.0281,0.0775,0.0458,0.1151c0.0096,0.0201,0.0134,0.0427,0.0256,0.0615c0.0162,0.025,0.0416,0.0433,0.0624,0.0653
	c0.0242,0.0256,0.0451,0.0538,0.0745,0.074c0.0025,0.0017,0.0037,0.0045,0.0062,0.0062c0.7373,0.4858,1.1621,1.3032,1.1367,2.186
	l-0.0234,0.8135l-0.7578-0.0459c-0.8145-0.0498-1.5586-0.4917-2.0342-1.2529l-0.0083,0.0051
	c-0.1178-0.1904-0.3471-0.2917-0.5679-0.219c-8.3105,2.6284-18.6963,0.0195-18.8008-0.0078
	c-0.2061-0.0522-0.4775,0.1064-0.5938,0.2915c-0.4326,0.6914-1.1768,1.1333-1.9912,1.1831l-0.7568,0.0459l-0.0234-0.8135
	c-0.0264-0.8828,0.3984-1.6997,1.1357-2.186c0.0025-0.0016,0.0037-0.0044,0.0061-0.0061c0.0294-0.0202,0.0503-0.0483,0.0745-0.074
	c0.0209-0.0221,0.0464-0.0404,0.0626-0.0654c0.0119-0.0184,0.0157-0.0406,0.0251-0.0604c0.0179-0.038,0.0382-0.0749,0.0461-0.1159
	c0.004-0.0201-0.0008-0.0416,0.0006-0.0623c0.003-0.0443,0.007-0.0883-0.002-0.1323c-0.0005-0.0026,0.0004-0.0049-0.0001-0.0075
	c-3.1162-14.293-0.041-24.9028-0.0088-25.0083C30.71,21.9238,30.627,21.6958,30.4434,21.5747z"/>
<path class="st0" d="M32.7529,38.8682h18.666c0.2764,0,0.5-0.2236,0.5-0.5V30.874c0-0.2764-0.2236-0.5-0.5-0.5h-18.666
	c-0.2764,0-0.5,0.2236-0.5,0.5v7.4941C32.2529,38.6445,32.4766,38.8682,32.7529,38.8682z M33.2529,31.374h17.666v6.4941h-17.666
	V31.374z"/>
<path class="st0" d="M12.1895,52.2822l1.9971,1.2949c0.25,0.1616,0.5381,0.2422,0.8252,0.2422c0.2881,0,0.5762-0.0811,0.8281-0.2432
	l1.9951-1.2944c2.5723-1.6772,4.1084-4.5059,4.1084-7.5669v-6.4692c0-0.7217-0.5869-1.3086-1.3086-1.3086h-3.4033V17.5187
	c1.2994-0.7662,2.1826-2.1655,2.1826-3.7799v-3.0571c0-0.2764-0.2236-0.5-0.5-0.5h-7.8047c-0.2764,0-0.5,0.2236-0.5,0.5v3.0571
	c0,1.6144,0.8832,3.0136,2.1826,3.7798V36.937H9.3896c-0.7217,0-1.3086,0.5869-1.3086,1.3086v6.4692
	C8.0811,47.7764,9.6162,50.605,12.1895,52.2822z M11.6094,13.7388v-2.5571h6.8047v2.5571c0,1.876-1.5264,3.4023-3.4023,3.4023
	S11.6094,15.6147,11.6094,13.7388z M15.0117,18.1411c0.426,0,0.8298-0.08,1.2197-0.1934V36.937H13.792V17.9478
	C14.1819,18.0612,14.5857,18.1411,15.0117,18.1411z M9.0811,38.2456c0-0.1699,0.1387-0.3086,0.3086-0.3086h3.9023h3.4395h3.9033
	c0.1699,0,0.3086,0.1387,0.3086,0.3086v6.4692c0,2.7217-1.3662,5.2373-3.6543,6.7285l-1.9922,1.293
	c-0.1719,0.1104-0.3994,0.1094-0.5674,0.001l-1.9941-1.2935c-2.2881-1.4912-3.6543-4.0068-3.6543-6.729V38.2456z"/>
</svg>

<?xml version="1.0" encoding="UTF-8" standalone="no"?>
<!DOCTYPE svg PUBLIC "-//W3C//DTD SVG 1.1//EN" "http://www.w3.org/Graphics/SVG/1.1/DTD/svg11.dtd">
<svg width="100%" height="100%" viewBox="0 0 64 65" version="1.1" xmlns="http://www.w3.org/2000/svg" xmlns:xlink="http://www.w3.org/1999/xlink" xml:space="preserve" xmlns:serif="http://www.serif.com/" style="fill-rule:evenodd;clip-rule:evenodd;stroke-linejoin:round;stroke-miterlimit:2;">
    <g transform="matrix(1,0,0,1,0,-244)">
        <g transform="matrix(0.0625,0,0,0.0833333,0,244.05)">
            <rect id="ico_build" x="0" y="0" width="1024" height="768" style="fill:none;"/>
            <g id="ico_build1" serif:id="ico_build">
                <g id="ico_build.svg" transform="matrix(16,0,0,12,512,384)">
                    <g transform="matrix(1,0,0,1,-32,-32)">
                        <g>
                            <path d="M29.617,47.04C28.761,47.731 28.275,48.767 28.308,49.882L28.346,51.211C28.35,51.347 28.408,51.475 28.508,51.566C28.601,51.651 28.721,51.697 28.846,51.697C28.856,51.697 28.866,51.697 28.876,51.696L30.149,51.619C31.17,51.557 32.112,51.052 32.764,50.198C34.647,50.639 43.681,52.521 51.434,50.203C52.052,51.023 52.989,51.556 54.024,51.619L55.296,51.696C55.306,51.697 55.317,51.697 55.326,51.697C55.45,51.697 55.571,51.651 55.663,51.567C55.764,51.475 55.822,51.347 55.826,51.212L55.865,49.883C55.897,48.767 55.41,47.731 54.555,47.04C57.308,34.083 55.075,24.131 54.575,22.192C55.421,21.502 55.898,20.468 55.865,19.36L55.826,18.031C55.822,17.896 55.764,17.768 55.663,17.676C55.564,17.586 55.43,17.54 55.296,17.547L54.023,17.624C52.981,17.687 52.037,18.227 51.417,19.061C41.694,16.987 34.441,18.592 32.762,19.034C32.144,18.208 31.187,17.686 30.148,17.624L28.876,17.546C28.74,17.543 28.608,17.585 28.508,17.676C28.408,17.768 28.35,17.896 28.346,18.031L28.308,19.36C28.274,20.468 28.751,21.502 29.597,22.192C29.097,24.131 26.864,34.083 29.617,47.04ZM30.443,21.575C29.706,21.089 29.281,20.272 29.308,19.389L29.331,18.576L30.088,18.622C30.901,18.671 31.646,19.113 32.126,19.878C32.247,20.069 32.481,20.154 32.694,20.09C32.774,20.066 40.71,17.719 51.517,20.1C51.744,20.149 51.957,20.034 52.059,19.84C52.069,19.827 52.084,19.818 52.093,19.804C52.525,19.113 53.271,18.671 54.084,18.622L54.842,18.576L54.865,19.389C54.891,20.272 54.466,21.089 53.729,21.575C53.545,21.696 53.462,21.924 53.525,22.135C53.557,22.241 56.632,32.85 53.516,47.144C53.515,47.146 53.516,47.149 53.516,47.151C53.507,47.196 53.511,47.24 53.514,47.284C53.515,47.305 53.51,47.326 53.514,47.345C53.522,47.386 53.542,47.423 53.56,47.46C53.57,47.481 53.573,47.503 53.585,47.522C53.602,47.547 53.627,47.565 53.648,47.587C53.672,47.613 53.693,47.641 53.722,47.661C53.725,47.663 53.726,47.666 53.729,47.667C54.466,48.153 54.891,48.971 54.865,49.853L54.842,50.667L54.084,50.621C53.27,50.571 52.525,50.129 52.05,49.368L52.042,49.373C51.924,49.183 51.694,49.082 51.474,49.154C43.163,51.783 32.777,49.174 32.673,49.146C32.467,49.094 32.195,49.253 32.079,49.438C31.646,50.129 30.902,50.571 30.088,50.621L29.331,50.667L29.308,49.853C29.281,48.971 29.706,48.154 30.443,47.667C30.446,47.666 30.447,47.663 30.449,47.661C30.479,47.641 30.5,47.613 30.524,47.587C30.545,47.565 30.57,47.547 30.587,47.522C30.598,47.504 30.602,47.481 30.612,47.462C30.63,47.424 30.65,47.387 30.658,47.346C30.662,47.326 30.657,47.304 30.658,47.283C30.661,47.239 30.665,47.195 30.656,47.151C30.656,47.148 30.657,47.146 30.656,47.144C27.54,32.851 30.615,22.241 30.647,22.135C30.71,21.924 30.627,21.696 30.443,21.575Z" style="fill:rgb(26,91,87);fill-rule:nonzero;"/>
                            <path d="M32.753,38.868L51.419,38.868C51.695,38.868 51.919,38.645 51.919,38.368L51.919,30.874C51.919,30.598 51.695,30.374 51.419,30.374L32.753,30.374C32.476,30.374 32.253,30.598 32.253,30.874L32.253,38.368C32.253,38.645 32.477,38.868 32.753,38.868ZM33.253,31.374L50.919,31.374L50.919,37.868L33.253,37.868L33.253,31.374Z" style="fill:rgb(26,91,87);fill-rule:nonzero;"/>
                            <path d="M12.19,52.282L14.187,53.577C14.437,53.739 14.725,53.819 15.012,53.819C15.3,53.819 15.588,53.738 15.84,53.576L17.835,52.282C20.407,50.604 21.943,47.776 21.943,44.715L21.943,38.246C21.943,37.524 21.357,36.937 20.635,36.937L17.232,36.937L17.232,17.519C18.531,16.752 19.414,15.353 19.414,13.739L19.414,10.682C19.414,10.405 19.191,10.182 18.914,10.182L11.109,10.182C10.833,10.182 10.609,10.405 10.609,10.682L10.609,13.739C10.609,15.353 11.493,16.752 12.792,17.519L12.792,36.937L9.39,36.937C8.668,36.937 8.081,37.524 8.081,38.246L8.081,44.715C8.081,47.776 9.616,50.605 12.19,52.282ZM11.609,13.739L11.609,11.182L18.414,11.182L18.414,13.739C18.414,15.615 16.888,17.141 15.012,17.141C13.136,17.141 11.609,15.615 11.609,13.739ZM15.012,18.141C15.438,18.141 15.842,18.061 16.231,17.948L16.231,36.937L13.792,36.937L13.792,17.948C14.182,18.061 14.586,18.141 15.012,18.141ZM9.081,38.246C9.081,38.076 9.22,37.937 9.39,37.937L20.635,37.937C20.805,37.937 20.943,38.076 20.943,38.246L20.943,44.715C20.943,47.437 19.577,49.952 17.289,51.443L15.297,52.736C15.125,52.847 14.898,52.846 14.73,52.737L12.735,51.444C10.447,49.953 9.081,47.437 9.081,44.715L9.081,38.246Z" style="fill:rgb(26,91,87);fill-rule:nonzero;"/>
                        </g>
                    </g>
                </g>
            </g>
        </g>
    </g>
</svg>
